!!!OTL: Wowei zuguo fangyang qun
!!!ARE: Asia, China,ˇGansu Sunan
!! I, 113
!!!SCT: C2023
!!!YEM: Copyright 1995, estate of Helmut Schaffrath.
**kern
*ICvox
*Ivox
*M3/4
*k[b-e-]
*B-:
{16bb-
8bb-
16ccc
4ddd
16ddd
16ccc
16ddd
16fff
=1
2ddd
4bb-}
=2
{12bb-
12dd
12dd
4gg
4bb-
=3
12bb-
12gg
12ff
24gg
24bb-
24ccc
24bb-
24ddd
24fff
4ddd}
{12bb-
12dd
12dd
4gg
4bb-
=4
12bb-
12gg
12ff
12gg
[12gg
[12gg]
4gg]}
=5
{12dd
12dd
12dd
4gg
4bb-
=6
12bb-
12gg
12ff
24gg
24bb-
24ccc
24bb-
24ddd
24fff
4ddd}
{12bb-
12dd
12dd
4gg
4bb-
=7
12bb-
12gg
12ff
12gg
[12gg
[12gg]
4gg]}
==
!!!AGN: Shange, YÅge
!! YÅgu
!!!ONB: ESAC (Essen Associative Code) Database: SENGANSU
!!!AMT: simple triple
!!!AIN: vox
!!!EED: Helmut Schaffrath
!!!EEV: 1.0
*-
